svg/u1f440.svg

<svg viewBox="0 0 128 128" xmlns="http://www.w3.org/2000/svg">
  <g>
    <g>
      <g>
        <path d="M34.16,106.51C18.73,106.51,6.19,87.44,6.19,64c0-23.44,12.55-42.51,27.97-42.51 c15.42,0,27.97,19.07,27.97,42.51C62.13,87.44,49.58,106.51,34.16,106.51z" fill="#FAFAFA"/>
        <path d="M34.16,23.49c6.63,0,12.98,4,17.87,11.27c5.22,7.75,8.1,18.14,8.1,29.24s-2.88,21.49-8.1,29.24 c-4.89,7.27-11.24,11.27-17.87,11.27s-12.98-4-17.87-11.27C11.06,85.49,8.19,75.1,8.19,64s2.88-21.49,8.1-29.24 C21.18,27.49,27.52,23.49,34.16,23.49 M34.16,19.49C17.61,19.49,4.19,39.42,4.19,64s13.42,44.51,29.97,44.51 S64.13,88.58,64.13,64S50.71,19.49,34.16,19.49L34.16,19.49z" fill="#B0BEC5"/>
      </g>
      <linearGradient id="SVGID_1_" gradientUnits="userSpaceOnUse" x1="22.5233" x2="22.5233" y1="46.6759" y2="82.0828">
        <stop offset="0" stop-color="#424242"/>
        <stop offset="1" stop-color="#212121"/>
      </linearGradient>
      <path d="M25.63,59.84c-2.7-2.54-2.1-7.58,1.36-11.26c0.18-0.19,0.36-0.37,0.55-0.54 c-1.54-0.87-3.23-1.36-5.01-1.36c-7.19,0-13.02,7.93-13.02,17.7s5.83,17.7,13.02,17.7s13.02-7.93,13.02-17.7 c0-1.75-0.19-3.45-0.54-5.05C31.77,61.66,27.9,61.97,25.63,59.84z" fill="url(#SVGID_1_)"/>
    </g>
    <g>
      <ellipse cx="93.84" cy="64" fill="#EEEEEE" rx="29.97" ry="44.51"/>
      <g>
        <path d="M93.84,106.51c-15.42,0-27.97-19.07-27.97-42.51c0-23.44,12.55-42.51,27.97-42.51 c15.42,0,27.97,19.07,27.97,42.51C121.81,87.44,109.27,106.51,93.84,106.51z" fill="#FAFAFA"/>
        <path d="M93.84,23.49c6.63,0,12.98,4,17.87,11.27c5.22,7.75,8.1,18.14,8.1,29.24s-2.88,21.49-8.1,29.24 c-4.89,7.27-11.24,11.27-17.87,11.27s-12.98-4-17.87-11.27c-5.22-7.75-8.1-18.14-8.1-29.24s2.88-21.49,8.1-29.24 C80.86,27.49,87.21,23.49,93.84,23.49 M93.84,19.49c-16.55,0-29.97,19.93-29.97,44.51s13.42,44.51,29.97,44.51 S123.81,88.58,123.81,64S110.39,19.49,93.84,19.49L93.84,19.49z" fill="#B0BEC5"/>
      </g>
      <linearGradient id="SVGID_2_" gradientUnits="userSpaceOnUse" x1="82.2093" x2="82.2093" y1="46.6759" y2="82.0828">
        <stop offset="0" stop-color="#424242"/>
        <stop offset="1" stop-color="#212121"/>
      </linearGradient>
      <path d="M85.31,59.84c-2.7-2.54-2.1-7.58,1.36-11.26c0.18-0.19,0.36-0.37,0.55-0.54 c-1.54-0.87-3.23-1.36-5.01-1.36c-7.19,0-13.02,7.93-13.02,17.7s5.83,17.7,13.02,17.7c7.19,0,13.02-7.93,13.02-17.7 c0-1.75-0.19-3.45-0.54-5.05C91.46,61.66,87.58,61.97,85.31,59.84z" fill="url(#SVGID_2_)"/>
    </g>
  </g>
</svg>

<svg viewBox="0 0 128 128" xmlns="http://www.w3.org/2000/svg">
  <defs>
    <linearGradient id="SVGID_1_" gradientUnits="userSpaceOnUse" x1="22.5233" x2="22.5233" y1="46.6759" y2="82.0828">
      <stop offset="0" stop-color="#424242"/>
      <stop offset="1" stop-color="#212121"/>
    </linearGradient>
    <linearGradient id="SVGID_2_" gradientUnits="userSpaceOnUse" x1="82.2093" x2="82.2093" y1="46.6759" y2="82.0828">
      <stop offset="0" stop-color="#424242"/>
      <stop offset="1" stop-color="#212121"/>
    </linearGradient>
  </defs>
  <path d="M34.16,106.51 C18.73,106.51 6.19,87.44 6.19,64 C6.19,40.56 18.74,21.49 34.16,21.49 C49.58,21.49 62.13,40.56 62.13,64 C62.13,87.44 49.58,106.51 34.16,106.51 Z" fill="#FAFAFA"/>
  <path d="M34.16,23.49 C40.79,23.49 47.14,27.49 52.03,34.76 C57.25,42.51 60.13,52.9 60.13,64 C60.13,75.1 57.25,85.49 52.03,93.24 C47.14,100.51 40.79,104.51 34.16,104.51 C27.53,104.51 21.18,100.51 16.29,93.24 C11.06,85.49 8.19,75.1 8.19,64 C8.19,52.9 11.07,42.51 16.29,34.76 C21.18,27.49 27.52,23.49 34.16,23.49 M34.16,19.49 C17.61,19.49 4.19,39.42 4.19,64 C4.19,88.58 17.61,108.51 34.16,108.51 C50.71,108.51 64.13,88.58 64.13,64 C64.13,39.42 50.71,19.49 34.16,19.49 L34.16,19.49 Z" fill="#B0BEC5"/>
  <path d="M25.63,59.84 C22.93,57.3 23.53,52.26 26.99,48.58 C27.17,48.39 27.35,48.21 27.54,48.04 C26,47.17 24.31,46.68 22.53,46.68 C15.34,46.68 9.51,54.61 9.51,64.38 C9.51,74.15 15.34,82.08 22.53,82.08 C29.72,82.08 35.55,74.15 35.55,64.38 C35.55,62.63 35.36,60.93 35.01,59.33 C31.77,61.66 27.9,61.97 25.63,59.84 Z" fill="url(#SVGID_1_)"/>
  <path d="M123.81,64 A29.97 44.51 0 1 1 63.87,64 A29.97 44.51 0 1 1 123.81,64 Z" fill="#EEEEEE"/>
  <path d="M93.84,106.51 C78.42,106.51 65.87,87.44 65.87,64 C65.87,40.56 78.42,21.49 93.84,21.49 C109.26,21.49 121.81,40.56 121.81,64 C121.81,87.44 109.27,106.51 93.84,106.51 Z" fill="#FAFAFA"/>
  <path d="M93.84,23.49 C100.47,23.49 106.82,27.49 111.71,34.76 C116.93,42.51 119.81,52.9 119.81,64 C119.81,75.1 116.93,85.49 111.71,93.24 C106.82,100.51 100.47,104.51 93.84,104.51 C87.21,104.51 80.86,100.51 75.97,93.24 C70.75,85.49 67.87,75.1 67.87,64 C67.87,52.9 70.75,42.51 75.97,34.76 C80.86,27.49 87.21,23.49 93.84,23.49 M93.84,19.49 C77.29,19.49 63.87,39.42 63.87,64 C63.87,88.58 77.29,108.51 93.84,108.51 C110.39,108.51 123.81,88.58 123.81,64 C123.81,39.42 110.39,19.49 93.84,19.49 L93.84,19.49 Z" fill="#B0BEC5"/>
  <path d="M85.31,59.84 C82.61,57.3 83.21,52.26 86.67,48.58 C86.85,48.39 87.03,48.21 87.22,48.04 C85.68,47.17 83.99,46.68 82.21,46.68 C75.02,46.68 69.19,54.61 69.19,64.38 C69.19,74.15 75.02,82.08 82.21,82.08 C89.4,82.08 95.23,74.15 95.23,64.38 C95.23,62.63 95.04,60.93 94.69,59.33 C91.46,61.66 87.58,61.97 85.31,59.84 Z" fill="url(#SVGID_2_)"/>
</svg>
